papirus/22x22/apps/opera.svg

<svg height="22" width="22" xmlns="http://www.w3.org/2000/svg" xmlns:xlink="http://www.w3.org/1999/xlink"><clipPath id="a"><circle cx="286" cy="26" r="10"/></clipPath><g transform="translate(-.999935 -1)"><path d="m12 2a10 10 0 0 0 -10 10 10 10 0 0 0  10 10 10 10 0 0 0  10-10 10 10 0 0 0 -10-10zm0 4a5 6 0 0 1 5 6 5 6 0 0 1 -5 6 5 6 0 0 1 -5-6 5 6 0 0 1  5-6z" fill="#e74c3c"/><circle clip-path="url(#a)" cx="286" cy="26" opacity="0" r="10" stroke-width=".45455" transform="translate(-274.00013 -14)"/><circle clip-path="url(#a)" cx="286" cy="26" opacity="0" r="10" stroke-width=".90908998" transform="translate(-274.00013 -14)"/><path d="m12 2a10 10 0 0 0 -10 10 10 10 0 0 0  .0097656.207031 10 10 0 0 1  9.9902344-9.707031 10 10 0 0 1  9.990234 9.792969 10 10 0 0 0  .009766-.292969 10 10 0 0 0 -10-10zm4.992188 10.197266a5 6 0 0 1 -4.992188 5.802734 5 6 0 0 1 -4.9921875-5.697266 5 6 0 0 0 -.0078125.197266 5 6 0 0 0  5 6 5 6 0 0 0  5-6 5 6 0 0 0 -.0078-.302734z" fill="#fff" opacity=".2"/><path d="m12 5.5a5 6 0 0 0 -5 6 5 6 0 0 0  .00781.302734 5 6 0 0 1  4.99219-5.802734 5 6 0 0 1  4.992188 5.697266 5 6 0 0 0  .007812-.197266 5 6 0 0 0 -5-6zm-9.9902344 6.207031a10 10 0 0 0 -.0097656.292969 10 10 0 0 0  10 10 10 10 0 0 0  10-10 10 10 0 0 0 -.009766-.207031 10 10 0 0 1 -9.990234 9.707031 10 10 0 0 1 -9.9902344-9.792969z" opacity=".3"/></g></svg>

<?xml version="1.0" encoding="UTF-8" standalone="no"?>
<!-- Created with Inkscape (http://www.inkscape.org/) -->

<svg
   xmlns:dc="http://purl.org/dc/elements/1.1/"
   xmlns:cc="http://creativecommons.org/ns#"
   xmlns:rdf="http://www.w3.org/1999/02/22-rdf-syntax-ns#"
   xmlns:svg="http://www.w3.org/2000/svg"
   xmlns="http://www.w3.org/2000/svg"
   xmlns:sodipodi="http://sodipodi.sourceforge.net/DTD/sodipodi-0.dtd"
   xmlns:inkscape="http://www.inkscape.org/namespaces/inkscape"
   id="svg2817"
   height="22"
   width="22"
   version="1.0"
   inkscape:version="0.91 r13725"
   sodipodi:docname="opera.svg">
  <sodipodi:namedview
     pagecolor="#ffffff"
     bordercolor="#666666"
     borderopacity="1"
     objecttolerance="10"
     gridtolerance="10"
     guidetolerance="10"
     inkscape:pageopacity="0"
     inkscape:pageshadow="2"
     inkscape:window-width="1600"
     inkscape:window-height="849"
     id="namedview12"
     showgrid="false"
     inkscape:zoom="4.97"
     inkscape:cx="-44.253521"
     inkscape:cy="3.8644068"
     inkscape:window-x="0"
     inkscape:window-y="0"
     inkscape:window-maximized="1"
     inkscape:current-layer="svg2817" />
  <metadata
     id="metadata57">
    <rdf:RDF>
      <cc:Work
         rdf:about="">
        <dc:format>image/svg+xml</dc:format>
        <dc:type
           rdf:resource="http://purl.org/dc/dcmitype/StillImage" />
        <dc:title></dc:title>
      </cc:Work>
    </rdf:RDF>
  </metadata>
  <defs
     id="defs2819">
    <clipPath
       id="clipPath4186"
       clipPathUnits="userSpaceOnUse">
      <circle
         id="path4188"
         style="color:#000000;fill:url(#linearGradient4190)"
         cx="286"
         cy="26"
         r="10" />
    </clipPath>
  </defs>
  <g
     id="g4139"
     transform="translate(-0.999935,-1)">
    <path
       id="path4154"
       d="M 12,2 A 10,10 0 0 0 2,12 10,10 0 0 0 12,22 10,10 0 0 0 22,12 10,10 0 0 0 12,2 Z m 0,4 a 5,6 0 0 1 5,6 5,6 0 0 1 -5,6 5,6 0 0 1 -5,-6 5,6 0 0 1 5,-6 z"
       style="color:#000000;fill:#e74c3c"
       inkscape:connector-curvature="0" />
    <circle
       r="10"
       cy="26"
       transform="translate(-274.00013,-14)"
       cx="286"
       clip-path="url(#clipPath4186)"
       style="color:#000000;opacity:0;stroke-width:0.45455"
       id="path4240" />
    <circle
       r="10"
       cy="26"
       transform="translate(-274.00013,-14)"
       cx="286"
       clip-path="url(#clipPath4186)"
       style="color:#000000;opacity:0;stroke-width:0.90908998"
       id="path4242" />
    <path
       id="path4157"
       d="M 12,2 A 10,10 0 0 0 2,12 10,10 0 0 0 2.0097656,12.207031 10,10 0 0 1 12,2.5 10,10 0 0 1 21.990234,12.292969 10,10 0 0 0 22,12 10,10 0 0 0 12,2 Z m 4.992188,10.197266 A 5,6 0 0 1 12,18 5,6 0 0 1 7.0078125,12.302734 5,6 0 0 0 7,12.5 a 5,6 0 0 0 5,6 5,6 0 0 0 5,-6 5,6 0 0 0 -0.0078,-0.302734 z"
       style="color:#000000;opacity:0.2;fill:#ffffff;fill-opacity:1"
       inkscape:connector-curvature="0" />
    <path
       id="path4162"
       d="m 12,5.5 a 5,6 0 0 0 -5,6 5,6 0 0 0 0.00781,0.302734 A 5,6 0 0 1 12,6 5,6 0 0 1 16.992188,11.697266 5,6 0 0 0 17,11.5 5,6 0 0 0 12,5.5 Z M 2.0097656,11.707031 A 10,10 0 0 0 2,12 10,10 0 0 0 12,22 10,10 0 0 0 22,12 10,10 0 0 0 21.990234,11.792969 10,10 0 0 1 12,21.5 10,10 0 0 1 2.0097656,11.707031 Z"
       style="color:#000000;opacity:0.3;fill:#000000;fill-opacity:1"
       inkscape:connector-curvature="0" />
  </g>
</svg>
